rospo-icon-theme-classic-common/32x32/apps/zynaddsubfx.svg

<svg height="32" viewBox="0 0 32 32" width="32" xmlns="http://www.w3.org/2000/svg"><path d="m6.0273438 3.9996668a4.0004 4.0004 0 0 0 -2.4003907 7.2207032l4.3359375 3.195313-5.2910156 7.9375a4.0004 4.0004 0 0 0 3.0429688 6.208984l20.0000002 1.427734a4.0004 4.0004 0 0 0 2.578125-7.267578l-4.714844-3.300781 5.517578-6.746094a4.0004 4.0004 0 0 0 -2.669922-6.5097656l-19.9999998-2.1425781a4.0004 4.0004 0 0 0 -.3984374-.0234375z" opacity=".2"/><path d="m6.0273438 3a4.0004 4.0004 0 0 0 -2.4003907 7.220703l4.3359375 3.195313-5.2910156 7.9375a4.0004 4.0004 0 0 0 3.0429688 6.208984l20.0000002 1.427734a4.0004 4.0004 0 0 0 2.578125-7.267578l-4.714844-3.300781 5.517578-6.746094a4.0004 4.0004 0 0 0 -2.669922-6.5097654l-19.9999998-2.1425781a4.0004 4.0004 0 0 0 -.3984374-.0234375z" fill="#4f4f4f"/><path d="m6 8 20 2.142857-6.428571 7.857143z" opacity=".2"/><path d="m6 24.571428 5.714286-8.571428 14.285714 10z" opacity=".2"/><path d="m6 23.571428 5.714286-8.571428 14.285714 10z" fill="#1bd9a5"/><path d="m6 7 20 2.1428571-6.428571 7.8571429z" fill="#1cadf4"/><g fill="#fff"><path d="m6.0273438 3a4.0004 4.0004 0 0 0 -3.9941407 4.515625 4.0004 4.0004 0 0 1 3.9941407-3.515625 4.0004 4.0004 0 0 1  .3984374.0234375l19.9999998 2.1425781a4.0004 4.0004 0 0 1 3.539063 3.4667969 4.0004 4.0004 0 0 0 -3.539063-4.4667969l-19.9999998-2.1425781a4.0004 4.0004 0 0 0 -.3984374-.0234375zm1.4882812 11.085938-4.84375 7.267578a4.0004 4.0004 0 0 0 -.6367188 2.726562 4.0004 4.0004 0 0 1  .6367188-1.726562l5.2910156-7.9375zm16.582031 4.699218-.519531.636719 4.714844 3.300781a4.0004 4.0004 0 0 1 1.671875 2.78711 4.0004 4.0004 0 0 0 -1.671875-3.78711z" opacity=".1"/><path d="m11.714844 15-5.714844 8.572266.6367188.044922 5.0781252-7.617188 12.695312 8.886719 1.589844.113281z" opacity=".1"/><path d="m6 7 1.5878906 1.1699219 17.6601564 1.8925781.751953-.9199219z" opacity=".1"/></g></svg>

<svg xmlns="http://www.w3.org/2000/svg" width="32" height="32" version="1.1" viewBox="0 0 32 32">
 <path style="opacity:0.2" d="M 6.0273438,3.9996668 A 4.0004,4.0004 0 0 0 3.6269531,11.22037 l 4.3359375,3.195313 -5.2910156,7.9375 a 4.0004,4.0004 0 0 0 3.0429688,6.208984 l 20.0000002,1.427734 a 4.0004,4.0004 0 0 0 2.578125,-7.267578 l -4.714844,-3.300781 5.517578,-6.746094 A 4.0004,4.0004 0 0 0 26.425781,6.1656824 L 6.4257812,4.0231043 A 4.0004,4.0004 0 0 0 6.0273438,3.9996668 Z"/>
 <path style="fill:#4f4f4f" d="m 6.0273438,3 a 4.0004,4.0004 0 0 0 -2.4003907,7.220703 l 4.3359375,3.195313 -5.2910156,7.9375 A 4.0004,4.0004 0 0 0 5.7148438,27.5625 l 20.0000002,1.427734 a 4.0004,4.0004 0 0 0 2.578125,-7.267578 l -4.714844,-3.300781 5.517578,-6.746094 A 4.0004,4.0004 0 0 0 26.425781,5.1660156 L 6.4257812,3.0234375 A 4.0004,4.0004 0 0 0 6.0273438,3 Z"/>
 <path style="opacity:0.2" d="M 6,8 26,10.142857 19.571429,18 Z"/>
 <path style="opacity:0.2" d="M 6,24.571428 11.714286,16 26,26 Z"/>
 <path style="fill:#1bd9a5" d="M 6,23.571428 11.714286,15 26,25 Z"/>
 <path style="fill:#1cadf4" d="M 6,7 26,9.1428571 19.571429,17 Z"/>
 <path style="opacity:0.1;fill:#ffffff" d="M 6.0273438 3 A 4.0004 4.0004 0 0 0 2.0332031 7.515625 A 4.0004 4.0004 0 0 1 6.0273438 4 A 4.0004 4.0004 0 0 1 6.4257812 4.0234375 L 26.425781 6.1660156 A 4.0004 4.0004 0 0 1 29.964844 9.6328125 A 4.0004 4.0004 0 0 0 26.425781 5.1660156 L 6.4257812 3.0234375 A 4.0004 4.0004 0 0 0 6.0273438 3 z M 7.515625 14.085938 L 2.671875 21.353516 A 4.0004 4.0004 0 0 0 2.0351562 24.080078 A 4.0004 4.0004 0 0 1 2.671875 22.353516 L 7.9628906 14.416016 L 7.515625 14.085938 z M 24.097656 18.785156 L 23.578125 19.421875 L 28.292969 22.722656 A 4.0004 4.0004 0 0 1 29.964844 25.509766 A 4.0004 4.0004 0 0 0 28.292969 21.722656 L 24.097656 18.785156 z"/>
 <path style="fill:#ffffff;opacity:0.1" d="M 11.714844 15 L 6 23.572266 L 6.6367188 23.617188 L 11.714844 16 L 24.410156 24.886719 L 26 25 L 11.714844 15 z"/>
 <path style="fill:#ffffff;opacity:0.1" d="M 6 7 L 7.5878906 8.1699219 L 25.248047 10.0625 L 26 9.1425781 L 6 7 z"/>
</svg>
